elements/rpg-character/lib/hat/pirate.svg

<svg width="113" height="142" viewBox="0 0 113 142" fill="none" xmlns="http://www.w3.org/2000/svg">
<path d="M28 47H23V27H28V17H35.5V12H70.5V17H83V27H88V47H78V52H28V47Z" fill="#383838"/>
<path d="M28 52V47H78V52H28Z" fill="#890000"/>
<path d="M35.5 27H32V31.1201H28V47H23V27H28V17H35.5V12H45.5V17H39.5V21H35.5V27Z" fill="#4F4F4F"/>
<path d="M63 52V47H73V42H78V27H70.5V22H50.5V12H70.5V17H83V27H88V47H78V52H63Z" fill="#262526"/>
<path d="M23 47V27H28V17H35.5V14V12H45.5V22H50.5V27H55.5V22H60.5V12H62.5H70.5V17H83V27H88V47H86V29H83V27H81V19H70.5V17H68.5V14H62.5V22H60.5V24H57.5V27H55.5V29H50.5V27H48.5V24H45.5V22H43.5V14H37.5V17H35.5V19H30V27H28V29H25V47H23Z" fill="#B69B11"/>
<path d="M63 52H78V47H63V52Z" fill="#680505"/>
<path d="M62.5 22H60.5V12H70.5V17H83V27H88V47H86V29H83V27H81V19H70.5V17H68.5V14H62.5V22Z" fill="#98720F"/>
<path d="M25 29V47H23V27H28V17H35.5V12H45.5V17H43.5V14H37.5V17H35.5V19H30V27H28V29H25Z" fill="#E0C32E"/>
<path fill-rule="evenodd" clip-rule="evenodd" d="M8 52.0001V57.0001H103V52.0001H108V47.0001V42.0001H98V47.0001H93V27.0001H88V17.0001H83V12.0001H70.5V7H55.5V22.0001H50.5V7H35.5V12L28 12.0001V17.0001H23V27.0001H18V47.0001H13V42.0001H8H3V52.0001H8ZM23 27.0001V47.0001H28V52.0001H78V47.0001H88V27.0001H83V17.0001H70.5V12.0001L60.5 12V22.0001H55.5V27.0001H50.5V22.0001H45.5V12H35.5V17.0001H28V27.0001H23Z" fill="black"/>
<path d="M45.5 33.5V30.5H42.5V33.5H48.5V30.5H57.5V33.5H63.5V30.5H60.5V33.5V39.5H57.5V36.5H54.5V39.5H57.5V42.5V45.5H60.5V42.5H54.5V45.5H51.5V42.5H48.5H45.5V45.5H48.5V39.5H51.5V36.5H48.5V39.5H45.5V33.5Z" fill="white"/>
<path d="M60.5 39.75H60.75V39.5V33.75H63.5H63.75V33.5V30.5V30.25H63.5H60.5H60.25V30.5V33.25H57.75V30.5V30.25H57.5H48.5H48.25V30.5V33.25H45.75V30.5V30.25H45.5H42.5H42.25V30.5V33.5V33.75H42.5H45.25V39.5V39.75H45.5H48.25V42.25H45.5H45.25V42.5V45.5V45.75H45.5H48.5H48.75V45.5V42.75H51.25V45.5V45.75H51.5H54.5H54.75V45.5V42.75H57.25V45.5V45.75H57.5H60.5H60.75V45.5V42.5V42.25H60.5H57.75V39.75H60.5ZM57.25 36.75V39.25H54.75V36.75H57.25ZM48.75 39.25V36.75H51.25V39.25H48.75Z" stroke="black" stroke-opacity="0.15" stroke-width="0.5"/>
</svg>

<svg xmlns="http://www.w3.org/2000/svg" fill="none" width="113" height="142" viewBox="0 0 113 142"><path d="M28 47h-5V27h5V17h7.5v-5h35v5H83v10h5v20H78v5H28v-5Z" fill="#383838"/><path d="M28 52v-5h50v5H28Z" fill="#890000"/><path d="M35.5 27H32v4.12h-4V47h-5V27h5V17h7.5v-5h10v5h-6v4h-4v6Z" fill="#4F4F4F"/><path d="M63 52v-5h10v-5h5V27h-7.5v-5h-20V12h20v5H83v10h5v20H78v5H63Z" fill="#262526"/><path d="M23 47V27h5V17h7.5v-5h10v10h5v5h5v-5h5V12h10v5H83v10h5v20h-2V29h-3v-2h-2v-8H70.5v-2h-2v-3h-6v8h-2v2h-3v3h-2v2h-5v-2h-2v-3h-3v-2h-2v-8h-6v3h-2v2H30v8h-2v2h-3v18h-2Z" fill="#B69B11"/><path d="M63 52h15v-5H63v5Z" fill="#680505"/><path d="M62.5 22h-2V12h10v5H83v10h5v20h-2V29h-3v-2h-2v-8H70.5v-2h-2v-3h-6v8Z" fill="#98720F"/><path d="M25 29v18h-2V27h5V17h7.5v-5h10v5h-2v-3h-6v3h-2v2H30v8h-2v2h-3Z" fill="#E0C32E"/><path d="M8 52v5h95v-5h5V42H98v5h-5V27h-5V17h-5v-5H70.5V7h-15v15h-5V7h-15v5H28v5h-5v10h-5v20h-5v-5H3v10h5Zm15-25v20h5v5h50v-5h10V27h-5V17H70.5v-5h-10v10h-5v5h-5v-5h-5V12h-10v5H28v10h-5Z" fill="#000" fill-rule="evenodd" clip-rule="evenodd"/><path d="M45.5 33.5v-3h-3v3h6v-3h9v3h6v-3h-3v9h-3v-3h-3v3h3v6h3v-3h-6v3h-3v-3h-6v3h3v-6h3v-3h-3v3h-3v-6Z" fill="#fff"/><path d="M60.5 39.75h.25v-6h3v-3.5h-3.5v3h-2.5v-3h-9.5v3h-2.5v-3h-3.5v3.5h3v6h3v2.5h-3v3.5h3.5v-3h2.5v3h3.5v-3h2.5v3h3.5v-3.5h-3v-2.5h2.75Zm-3.25-3v2.5h-2.5v-2.5h2.5Zm-8.5 2.5v-2.5h2.5v2.5h-2.5Z" stroke="#000" stroke-opacity=".15" stroke-width=".5"/></svg>
